X: 25492
T: Marfach, The
R: reel
M: 4/4
K: Eminor
|:EGBe dBAB|dBAd BAFD|EGBe dBAB|dBAB d3 B|
EGBe dBAB|dBAd BAFD|EFGB AGFA|GFED E4:|
|:e3 f gfed|BdAd BdAd|Beef gfed|fbba b3 a|
e3 f gfed|BdAd BdAd|G3 A BAGB|AGED E3 d:|
|:eE E/E/E dE E/E/E|cE E/E/E cEdE|eEdE cEBE|BAGB A3 d|
eE E/E/E dE E/E/E|cEdE edBA|G3 A BAGB|AGED E4:|

